svgs/thin/arrow-up-small-big.svg

<svg xmlns="http://www.w3.org/2000/svg" viewBox="0 0 576 512"><!--! Font Awesome Pro 6.6.0 by @fontawesome - https://fontawesome.com License - https://fontawesome.com/license (Commercial License) Copyright 2024 Fonticons, Inc. --><path d="M154.3 34.3c3.1-3.1 8.2-3.1 11.3 0l104 104c3.1 3.1 3.1 8.2 0 11.3s-8.2 3.1-11.3 0L168 59.3 168 472c0 4.4-3.6 8-8 8s-8-3.6-8-8l0-412.7L61.7 149.7c-3.1 3.1-8.2 3.1-11.3 0s-3.1-8.2 0-11.3l104-104zM336 80l0 64c0 17.7 14.3 32 32 32l64 0c17.7 0 32-14.3 32-32l0-64c0-17.7-14.3-32-32-32l-64 0c-17.7 0-32 14.3-32 32zm-16 0c0-26.5 21.5-48 48-48l64 0c26.5 0 48 21.5 48 48l0 64c0 26.5-21.5 48-48 48l-64 0c-26.5 0-48-21.5-48-48l0-64zm16 352c0 17.7 14.3 32 32 32l128 0c17.7 0 32-14.3 32-32l0-128c0-17.7-14.3-32-32-32l-128 0c-17.7 0-32 14.3-32 32l0 128zm-16 0l0-128c0-26.5 21.5-48 48-48l128 0c26.5 0 48 21.5 48 48l0 128c0 26.5-21.5 48-48 48l-128 0c-26.5 0-48-21.5-48-48z"/></svg>

<svg xmlns="http://www.w3.org/2000/svg" viewBox="0 0 576 512"><!--! Font Awesome Pro 6.4.2 by @fontawesome - https://fontawesome.com License - https://fontawesome.com/license (Commercial License) Copyright 2023 Fonticons, Inc. --><path d="M154.3 34.3c3.1-3.1 8.2-3.1 11.3 0l104 104c3.1 3.1 3.1 8.2 0 11.3s-8.2 3.1-11.3 0L168 59.3V472c0 4.4-3.6 8-8 8s-8-3.6-8-8V59.3L61.7 149.7c-3.1 3.1-8.2 3.1-11.3 0s-3.1-8.2 0-11.3l104-104zM336 80v64c0 17.7 14.3 32 32 32h64c17.7 0 32-14.3 32-32V80c0-17.7-14.3-32-32-32H368c-17.7 0-32 14.3-32 32zm-16 0c0-26.5 21.5-48 48-48h64c26.5 0 48 21.5 48 48v64c0 26.5-21.5 48-48 48H368c-26.5 0-48-21.5-48-48V80zm16 352c0 17.7 14.3 32 32 32H496c17.7 0 32-14.3 32-32V304c0-17.7-14.3-32-32-32H368c-17.7 0-32 14.3-32 32V432zm-16 0V304c0-26.5 21.5-48 48-48H496c26.5 0 48 21.5 48 48V432c0 26.5-21.5 48-48 48H368c-26.5 0-48-21.5-48-48z"/></svg>
